!!!COM:	Bach, Johann Sebastian
!!!CDT:	1685/02/21/-1750/07/28/
!!!OTL@@DE:	Nun danket alle Gott
!!!SCT:	BWV 386
!!!PC#:	32
!!!AGN:	chorale
**harm	**kern	**kern	**kern	**kern
*	*ICvox	*ICvox	*ICvox	*ICvox
*	*Ibass	*Itenor	*Ialto	*Isoprn
*	*I"Bass	*I"Tenor	*I"Alto	*I"Soprano
*>[A,A,B]	*>[A,A,B]	*>[A,A,B]	*>[A,A,B]	*>[A,A,B]
*>norep[A,B]	*>norep[A,B]	*>norep[A,B]	*>norep[A,B]	*>norep[A,B]
*>A	*>A	*>A	*>A	*>A
*	*	*oclefC4	*oclefC3	*oclefC1
*	*clefF4	*clefGv2	*clefG2	*clefG2
*k[f#c#g#]	*k[f#c#g#]	*k[f#c#g#]	*k[f#c#g#]	*k[f#c#g#]
*A:	*A:	*A:	*A:	*A:
*M4/4	*M4/4	*M4/4	*M4/4	*M4/4
*met(c)	*met(c)	*met(c)	*met(c)	*met(c)
*MM100	*MM100	*MM100	*MM100	*MM100
I	4AA	4c#	4a	4ee
=1	=1	=1	=1	=1
I	4A	4c#	4a	4ee
I6	4c#	4c#	4a	4ee
IV	4D	4d	4a	4ff#
IV6	4F#	4d	4a	4ff#
=2	=2	=2	=2	=2
I;	2A;	2c#;	2a;	2ee;
.	4r	4ry	4ry	4r
vi6	4A	4f#	4a	4cc#
=3	=3	=3	=3	=3
V65	4G#	4e	4b	4dd
I	4A	4e	4a	4cc#
V	8EL	8eL	8g#L	8bL
V2	8DJ	8eJ	8g#J	8bJ
I6	4C#	4e	4a	4cc#
=4	=4	=4	=4	=4
V7	2E	2d	2g#	2b
I;	4AA;	4c#;	4e;	4a;
=:|!	=:|!	=:|!	=:|!	=:|!
*>B	*>B	*>B	*>B	*>B
V	4E	4B	4g#	4b
=5	=5	=5	=5	=5
V	4E	4G#	4e	4b
V6	4G#	4B	4e	4b
I	4AA	4A	4e	4cc#
I6	4C#	4A	4e	4cc#
=6	=6	=6	=6	=6
V;	2EE;	2G#;	2e;	2b;
.	4r	4ry	4ry	4r
V	4E	4e	4g#	4b
=7	=7	=7	=7	=7
I	4A	4e	4a	4cc#
iii	8c#L	8eL	8g#L	8eeL
E:vi64	8G#J	8BJ	8g#J	8eeJ
ii65	4A	4c#	4f#	4ee
V	4B	4B	4f#	4dd#
=8	=8	=8	=8	=8
I;	2E;	2B;	2g#;	2ee;
.	4r	4ry	4ry	4r
A:I	4A	4c#	4a	4ee
=9	=9	=9	=9	=9
IV	4d	4d	4a	4ff#
viio/ii	4A#	4c#	4cc#	4ee
b:i	8BL	8f#L	8bL	8ddL
i6	8DJ	8f#J	8bJ	8ddJ
ii%65	8EL	8gL	8bL	8cc#L
V	8F#J	8f#J	8a#J	8cc#J
=10	=10	=10	=10	=10
i;	2BB;	2f#;	2b;	2dd;
.	4r	4ry	4ry	4r
A:I6	4C#	4e	4anX	4cc#
=11	=11	=11	=11	=11
V	4E	4e	4g#	4b
I	8AL	8eL	8aL	8cc#L
vi	8F#J	8f#J	8aJ	8cc#J
ii65	4D	4f#	4a	4b
V	4E	4B	4g#	4b
=12	=12	=12	=12	=12
I;	2.AA;	2.c#;	2.e;	2.a;
==	==	==	==	==
*-	*-	*-	*-	*-
!!!YOR1: 371 vierstimmige Choralges&auml;nge von Johann Sebastian Bach, 
!!!YOR2: 4th ed. by Alfred D&ouml;rffel (Leipzig: Breitkopf und H&auml;rtel, 
!!!YOR2: c.1875). 178 pp. Plate "V.A.10".  reprint: J.S. Bach, 371 Four-Part 
!!!YOR4: Chorales (New York: Associated Music Publishers, Inc., c.1940).
!!!SMS: B&H, 4th ed, Alfred D&ouml;rffel, c.1875, plate V.A.10
!!!EED:  Craig Stuart Sapp
!!!EEV:  2009/05/22
